X:1
T:Bezeichnung standardisiert: St.Martin's Lane;
T:Bezeichnung standardisiert: St.Martin's Lane;
T:7. [Dantz in G nach Johann Friedrich Drey\sser, 1720] In anderer Quelle: St.Martin's Lane, Playford, Dancing Master,9th Ed, 1696. (Anm. S. Wascher);  Tantz (1-97a), Dahlhoff SBB vor 1767 (Anm. Thomas Behr);  Tantz Bauer Hund - Dahlhoff SBB 1792 (Anm. Thomas Behr); La Furstemberg (Anm. Thomas Behr)]
T:Henry Purcell Erstbeleg: 1694 (Komponiert)
C:Henry Purcell
C:Erstbeleg: 1694 (Komponiert)
%%score 1 2
L:1/8
M:2/2
K:F
V:1 treble 
V:2 bass 
V:1
 Bc | d2 d2 d2 d2 | _e4 c4 | d2 cB A2 dc | B2 G4 Bc | d2 d2 d2 d2 | _e4 c4 | d2 cB ABAG | G6 :: %9
 d_e | f2 f2 f2 d2 | _e4 c4 | f2 f2 fgf_e | d6 _ef | g2 G2 G2 g2 | f2 F2 F2 f_e | d2 _e2 c3 B | %17
 B6 d_e | f2 f2 f2 f2 | ^f2 f2 f2 f2 | g2 g2 g3 ^f/g/ | a2 a2 a2 a2 | b2 b^f g3 a | f6 ga | %24
 b2 B2 B2 b2 | a2 A2 A2 a2 | g2 G2 G2 g2 | ^f2 g2 g3"^\201" f | g6 :| %29
V:2
[K:G]"^-40,25[sic]" !fermata!G,,2 | G,2 G,2 G,2 G,2 | C,4 F,4 | B,,2 C,2 D,2 D,,2 | %4
 G,,4 G,,2 G,,2 | G,2 G,2 G,2 G,2 | C,4 F,4 | B,,2 C,2 D,2 D,,2 | G,,6 :: G,,2 | D,2 D,2 D,2 F,2 | %11
 C,4 C,2 C,B,, | A,2 G,2 A,2 F,2 | B,4 B,,4 | E,4 D,4 | E,4 D,2 C,2 | B,,2 D,E, F,2 F,,2 | %17
 B,,6 B,,2 | B,2 B,,2 B,,2 B,2 | A,2 A,,2 A,,2 A,2 | G,2 G,,2 G,,2 G,2 | F,2 F,,2 F,,2 F,2 | %22
 D,2 B,,2 E,2 C,2 | D,4 D,4 | G,,4 G,4 | F,4 F,,4 | G,,4 E,4 | D,2 C,2 D,2 D,,2 | G,,6 :| %29

